X:5
T:Bookseller's Frolic, The
M:2/4
L:1/8
B:Thompson's Compleat Collection of 200 Favourite Country Dances, vol. 2 (London, 1765)
Z:Transcribed and edited by Flynn Titford-Mock, 2007
Z:abc's:AK/Fiddler's Companion
K:F
c | f2 gf/e/ | fcAc | f2 a(g/f/) | gece | g2 ba/g/ | afec | Gc dc/=B/ | c3 :|
|: c | cc (d/c/B/A/) | Bf "tr"f2 | ff (g/f/e/d/) | eg "tr"g2 | af b(a/g/) | afec | df (e/f/g/e/) | f3 :|

